packages/ui-solid/icons/pin_28.svg

<svg width="28" height="28" viewBox="0 0 28 28" fill="none" xmlns="http://www.w3.org/2000/svg">
<path fill-rule="evenodd" clip-rule="evenodd" d="M17.4595 3.3238C18.1338 3.1264 18.8506 3.1264 19.5249 3.3238C20.0274 3.47093 20.4499 3.74756 20.8685 4.09527C21.2714 4.42997 21.7282 4.88073 22.2827 5.42797L22.3389 5.48347C22.9071 6.04417 23.3746 6.50551 23.7216 6.91295C24.0818 7.3358 24.3688 7.76372 24.5212 8.27509C24.7253 8.96006 24.7253 9.68968 24.5212 10.3746C24.3688 10.886 24.0818 11.3139 23.7216 11.7368C23.3746 12.1442 22.9071 12.6056 22.3389 13.1663L21.082 14.4066C20.7511 14.7332 20.6544 14.8321 20.578 14.9348C20.4314 15.1322 20.3251 15.3565 20.265 15.5949C20.2338 15.7191 20.2184 15.8566 20.175 16.3195L20.1717 16.3541C20.0727 17.4099 19.994 18.2482 19.8896 18.8935C19.7864 19.5315 19.6408 20.1121 19.3328 20.5735C18.4417 21.9087 16.7872 22.5112 15.2462 22.0617C14.7136 21.9064 14.2288 21.5554 13.7394 21.1332C13.2445 20.7061 12.6452 20.1147 11.8904 19.3698L10.7425 18.237L6.20815 22.7116C5.85435 23.0607 5.28452 23.0569 4.93538 22.7031C4.58625 22.3494 4.59003 21.7795 4.94382 21.4304L9.46115 16.9725L8.44189 15.9667C7.67831 15.2132 7.07264 14.6155 6.63491 14.1222C6.2028 13.6352 5.84224 13.1522 5.67959 12.6205C5.20404 11.0657 5.80644 9.38322 7.16077 8.48364C7.62397 8.17596 8.20916 8.03159 8.85216 7.92956C9.50353 7.8262 10.3509 7.74877 11.4193 7.65116L11.4536 7.64802C11.9061 7.60667 12.0405 7.59205 12.1621 7.56216C12.3983 7.5041 12.621 7.40064 12.8177 7.25755C12.919 7.1839 13.0168 7.09062 13.3402 6.77146L14.7017 5.42795C15.2562 4.88072 15.7129 4.42997 16.1159 4.09527C16.5345 3.74756 16.9569 3.47093 17.4595 3.3238ZM19.0191 5.0513C18.675 4.95057 18.3093 4.95057 17.9652 5.0513C17.7961 5.1008 17.5936 5.20781 17.266 5.4799C16.9295 5.75939 16.5275 6.15509 15.9381 6.73671L14.6046 8.05266C14.5906 8.06647 14.5768 8.0801 14.5631 8.09356C14.2987 8.35468 14.1008 8.55006 13.8765 8.7132C13.491 8.99361 13.0547 9.19635 12.5918 9.31014C12.3224 9.37633 12.0455 9.40156 11.6754 9.43527C11.6563 9.437 11.637 9.43876 11.6174 9.44055C10.5071 9.54201 9.71948 9.61445 9.13426 9.70732C8.5337 9.80261 8.27794 9.90248 8.1567 9.98301C7.4656 10.4421 7.15821 11.3006 7.40087 12.094C7.44345 12.2332 7.57769 12.4727 7.98128 12.9275C8.37457 13.3707 8.93719 13.9266 9.7308 14.7098L13.13 18.0642C13.915 18.8389 14.4716 19.3875 14.9154 19.7704C15.37 20.1627 15.6096 20.2927 15.7503 20.3337C16.5366 20.5631 17.3809 20.2557 17.8356 19.5743C17.9169 19.4525 18.0168 19.1989 18.1127 18.606C18.2063 18.0274 18.2798 17.2494 18.3828 16.1513C18.3847 16.1313 18.3866 16.1115 18.3884 16.092C18.4238 15.7134 18.4503 15.4302 18.5196 15.1552C18.6373 14.688 18.8457 14.2485 19.133 13.8616C19.302 13.634 19.5046 13.4343 19.7753 13.1673C19.7892 13.1535 19.8034 13.1395 19.8177 13.1254L21.0463 11.913C21.6498 11.3174 22.0609 10.9106 22.3513 10.5697C22.6343 10.2374 22.7451 10.0318 22.7962 9.86056C22.9003 9.51103 22.9003 9.13871 22.7962 8.78918C22.7451 8.61796 22.6343 8.41234 22.3513 8.08006C22.0609 7.73913 21.6498 7.33231 21.0463 6.73671C20.4569 6.15509 20.0548 5.75939 19.7183 5.4799C19.3908 5.20781 19.1882 5.1008 19.0191 5.0513Z" fill="#007AFF"/>
</svg>

<svg xmlns="http://www.w3.org/2000/svg" width="28" height="28" fill="none"><path fill="currentColor" fill-rule="evenodd" d="M17.46 3.324a3.7 3.7 0 0 1 2.065 0c.502.147.925.424 1.344.771.402.335.86.786 1.414 1.333l.056.055c.568.561 1.036 1.023 1.383 1.43.36.423.647.85.8 1.362a3.7 3.7 0 0 1 0 2.1c-.153.511-.44.939-.8 1.362-.347.407-.815.869-1.383 1.43l-1.257 1.24c-.33.326-.428.425-.504.528a1.9 1.9 0 0 0-.313.66c-.031.124-.047.262-.09.725l-.003.034c-.1 1.056-.178 1.894-.282 2.54-.104.638-.25 1.218-.557 1.68a3.68 3.68 0 0 1-4.087 1.488c-.532-.156-1.017-.507-1.507-.929-.495-.427-1.094-1.018-1.849-1.763l-1.148-1.133-4.534 4.475a.9.9 0 0 1-1.264-1.282l4.517-4.457-1.02-1.006c-.763-.754-1.368-1.351-1.806-1.845-.432-.487-.793-.97-.955-1.501a3.68 3.68 0 0 1 1.48-4.137c.464-.308 1.05-.452 1.692-.554.652-.104 1.499-.181 2.567-.279l.035-.003c.452-.041.586-.056.708-.086a1.9 1.9 0 0 0 .656-.304c.101-.074.199-.167.522-.487l1.362-1.343c.554-.547 1.01-.998 1.414-1.333.419-.347.84-.624 1.343-.771m1.56 1.727c-.345-.1-.71-.1-1.055 0-.169.05-.371.157-.699.429-.336.28-.738.675-1.328 1.257l-1.333 1.316-.042.04c-.264.262-.462.457-.687.62-.385.28-.821.483-1.284.597-.27.066-.546.092-.917.125l-.058.006c-1.11.101-1.898.173-2.483.266-.6.096-.856.195-.977.276a1.88 1.88 0 0 0-.756 2.111c.042.14.177.379.58.834.394.443.956.999 1.75 1.782l3.399 3.354c.785.775 1.342 1.323 1.785 1.706.455.393.695.523.835.564.787.23 1.63-.078 2.086-.76.08-.122.18-.375.277-.968.093-.579.167-1.357.27-2.455l.005-.059c.036-.379.062-.662.132-.937.117-.467.326-.906.613-1.293.169-.228.372-.428.642-.695l.043-.042 1.228-1.212c.604-.596 1.015-1.002 1.305-1.343.283-.333.394-.538.445-.71a1.87 1.87 0 0 0 0-1.07c-.05-.172-.162-.378-.445-.71-.29-.34-.701-.748-1.305-1.343-.59-.582-.991-.978-1.328-1.257-.327-.272-.53-.38-.699-.429" clip-rule="evenodd"/></svg>
